X: 20552
Q: "Andante"
M: 3/4
L: 1/8
K: G
{d}c2 BAGF | G2 A2 B>d | {d}c2 B2 A>F | G4 Bd |\
{d}c2 BAGF | G2 A2 Bd | {d}c2 B2 AF | G2 zBcB |
e2 edcB | {B}A2 A2 BA | {A}G2 FEFG | D4 AB |\
{d}c2 BAdF | (GA/B/) A2 {a}gf/e/ | d2 cBcA | G4 |]


